X: 1
T: Lonesome John
R: reel
Z: 2007 John Chambers <jc:trillian.mit.edu>
M: C|
L: 1/8
K: Ador
|: "Am"abag e2g2 | e2c2 A4 | abag e2d2 | "G"{d}e8 \
|  "Am"{fg}abag e2g2 | edc2 A2Ac | edc2 "G"A2{BA}G2 | "Am"A8 :|
|: "Am"A2AG A2c2 | AGA2 c2A2 | A2AA c2d2 | "G"{d}e8 \
|  "Am"{fg}a2a2 g2{ag}e2 | "D(m)"d2d2 c2{dc}A2 | "Am"cBAc "G"BAG2 | "Am"A8 :|
